images/INTEKPROM.svg

<?xml version="1.0" encoding="UTF-8"?>
<svg xmlns="http://www.w3.org/2000/svg" version="1.1" viewBox="0 0 884.2 993.1">
  <defs>
    <style>
      .cls-1 {
        fill: #f79323;
      }

      .cls-2 {
        fill: #1ead97;
      }

      .cls-3 {
        fill: #ee332e;
      }

      .cls-4 {
        opacity: .5;
      }

      .cls-5 {
        fill: #1faae1;
      }
    </style>
  </defs>
  <!-- Generator: Adobe Illustrator 28.7.1, SVG Export Plug-In . SVG Version: 1.2.0 Build 142)  -->
  <g>
    <g id="b23f212c-4074-437c-8ca1-013c89cab53d">
      <path class="cls-4" d="M0,886.1h27.1v104.7H0v-104.7Z"/>
      <path class="cls-4" d="M76.7,990.8h-27.1v-104.7h27.1l50.1,64v-64h27.1v104.7h-27.1l-50.1-64v64Z"/>
      <path class="cls-4" d="M238.2,909.2h-22.3v81.6h-27.2v-81.6h-22.2v-23.1h71.7v23.1Z"/>
      <path class="cls-4" d="M310.2,886.1v23.1h-32.4v17.4h30.6v23.1h-30.6v18h32.4v23.1h-59.5v-104.7h59.5Z"/>
      <path class="cls-4" d="M355,886.1v43.2l33.3-43.2h33.6l-41.6,49.6,45.3,55.1h-35.1l-35.5-45.4v45.4h-27.1v-104.7h27.1Z"/>
      <path class="cls-4" d="M482.4,956.1h-17.1v34.7h-27.1v-104.7h43.3c11.2,0,20,3.2,26.5,9.4s9.7,14.8,9.7,25.5-3.1,19.9-9.2,26-14.9,9.1-26.1,9.1ZM465.3,908.1v26h9.1c5.2,0,9.1-1.1,11.5-3.3s3.4-5.1,3.4-9.5-1-7.3-3.1-9.4-6.3-3.8-11.6-3.8h-9.3Z"/>
      <path class="cls-4" d="M532.6,886.1h42.4c11.1,0,19.6,3.1,25.6,9.3s8.9,13.9,8.9,23.5-2.8,16.5-8.3,21.8c-4,3.8-9.1,6.3-14.5,7.2l32.8,42.9h-33.7l-26-40.2v40.2h-27.2v-104.7ZM559.8,907.2v25.8h5.1c5.9,0,10.3-1.4,13.2-4.2,2.3-2.3,3.6-5.5,3.5-8.8.1-3.3-1.2-6.5-3.6-8.8-2.8-2.7-7.1-4-13.1-4h-5.1Z"/>
      <path class="cls-4" d="M742.2,938.5c0,15.5-5.5,28.5-16.5,39.1s-24.6,15.5-41.2,15.5-30.4-5.2-41.3-15.5-16.4-23.6-16.4-39.1c0-7.2,1.4-14.4,4.1-21.1,2.7-6.9,6.9-13,12.3-18.1,10.9-10.3,24.7-15.5,41.3-15.5s30.4,5.2,41.2,15.5c5.4,5,9.7,11.2,12.4,18.1,2.7,6.7,4.1,13.9,4.1,21.1ZM684.5,910.1c-8.6,0-15.7,2.8-21.2,8.3-5.5,5.4-8.5,12.9-8.3,20.6,0,7.4,2.9,14.4,8.3,19.5,5.7,5.5,13.3,8.5,21.2,8.3,8.6,0,15.6-2.7,21-8.2,5.5-5.2,8.6-12.5,8.5-20.1.1-7.6-2.9-14.9-8.5-20.1-5.6-5.4-13.2-8.4-21-8.3Z"/>
      <path class="cls-4" d="M780.2,990.8h-27l17.7-104.7h26.9l21.1,55.9,22.5-55.9h27.1l15.7,104.7h-27.1l-7.7-60.3-25.3,60.3h-10.8l-24.2-60.3-8.9,60.3Z"/>
      <path class="cls-1" d="M641.2,863.1c9.9-98.1,1-191.3-32.7-277.9,9.7-11.9,17.3-25,21.6-39.9,34,2.5,67.7,8.6,100.4,18.2l153.7,299.6h-243Z"/>
      <path class="cls-2" d="M309,863.1l6-46.7c69-6.3,102.6-90,52.9-143.7,22.8-38.4,53.1-69.4,91.8-92.3,25.1,28.5,55,41.1,90,36.1,28.2,74.4,37.9,158.7,24.4,246.6h-265.1Z"/>
      <path class="cls-5" d="M0,863.1L276.3,323.5c70.3,38,131.5,84,181.5,139.6-14.4,18-21.6,42.6-17.4,74.7-45.8,24-83.2,62.9-115,111.7-99.2-18.4-141.1,110.8-58.4,157.5-3.5,18.5-4.7,37.3-3.6,56.1H0Z"/>
      <path class="cls-3" d="M706,515.1L442.1,0l-137,266.9c88.2,32.4,216.8,154.9,210.2,158.4,65.2-7.4,100.9,21.7,116.2,77.7l74.5,12.1Z"/>
    </g>
  </g>
</svg>

<svg id="b23f212c-4074-437c-8ca1-013c89cab53d" data-name="Слой 6" xmlns="http://www.w3.org/2000/svg" viewBox="0 0 884.2 993.1"><defs><style>.ef4a32dc-dbf6-4517-8341-ed9deb3daacd{fill:#fff;}.b3d023c4-c302-46e6-aed2-836c2cc37145{fill:#f79323;}.b9108ded-05df-4e56-819b-85bb71329f34{fill:#1ead97;}.ad7025e7-17f3-4a7a-bfda-3592d3312899{fill:#1faae1;}.e81bc9ba-9f5d-4ffd-8e92-0f6b2e597a3e{fill:#ee332e;}</style></defs><path class="ef4a32dc-dbf6-4517-8341-ed9deb3daacd" d="M0,886.1H27.1V990.8H0Z"/><path class="ef4a32dc-dbf6-4517-8341-ed9deb3daacd" d="M76.7,990.8H49.6V886.1H76.7l50.1,64v-64h27.1V990.8H126.8l-50.1-64Z"/><path class="ef4a32dc-dbf6-4517-8341-ed9deb3daacd" d="M238.2,909.2H215.9v81.6H188.7V909.2H166.5V886.1h71.7Z"/><path class="ef4a32dc-dbf6-4517-8341-ed9deb3daacd" d="M310.2,886.1v23.1H277.8v17.4h30.6v23.1H277.8v18h32.4v23.1H250.7V886.1Z"/><path class="ef4a32dc-dbf6-4517-8341-ed9deb3daacd" d="M355,886.1v43.2l33.3-43.2h33.6l-41.6,49.6,45.3,55.1H390.5L355,945.4v45.4H327.9V886.1Z"/><path class="ef4a32dc-dbf6-4517-8341-ed9deb3daacd" d="M482.4,956.1H465.3v34.7H438.2V886.1h43.3c11.2,0,20,3.2,26.5,9.4s9.7,14.8,9.7,25.5-3.1,19.9-9.2,26S493.6,956.1,482.4,956.1Zm-17.1-48v26h9.1c5.2,0,9.1-1.1,11.5-3.3s3.4-5.1,3.4-9.5-1-7.3-3.1-9.4-6.3-3.8-11.6-3.8Z"/><path class="ef4a32dc-dbf6-4517-8341-ed9deb3daacd" d="M532.6,886.1H575c11.1,0,19.6,3.1,25.6,9.3s8.9,13.9,8.9,23.5-2.8,16.5-8.3,21.8a28.1,28.1,0,0,1-14.5,7.2l32.8,42.9H585.8l-26-40.2v40.2H532.6Zm27.2,21.1V933h5.1q8.9,0,13.2-4.2a11.9,11.9,0,0,0,3.5-8.8,11.5,11.5,0,0,0-3.6-8.8c-2.8-2.7-7.1-4-13.1-4Z"/><path class="ef4a32dc-dbf6-4517-8341-ed9deb3daacd" d="M742.2,938.5c0,15.5-5.5,28.5-16.5,39.1s-24.6,15.5-41.2,15.5-30.4-5.2-41.3-15.5-16.4-23.6-16.4-39.1a55.4,55.4,0,0,1,4.1-21.1,50.2,50.2,0,0,1,12.3-18.1c10.9-10.3,24.7-15.5,41.3-15.5s30.4,5.2,41.2,15.5a49.2,49.2,0,0,1,12.4,18.1A57.4,57.4,0,0,1,742.2,938.5Zm-57.7-28.4c-8.6,0-15.7,2.8-21.2,8.3A27.9,27.9,0,0,0,655,939a26.4,26.4,0,0,0,8.3,19.5,29.6,29.6,0,0,0,21.2,8.3c8.6,0,15.6-2.7,21-8.2a27.1,27.1,0,0,0,8.5-20.1,26.8,26.8,0,0,0-8.5-20.1A29.6,29.6,0,0,0,684.5,910.1Z"/><path class="ef4a32dc-dbf6-4517-8341-ed9deb3daacd" d="M780.2,990.8h-27l17.7-104.7h26.9L818.9,942l22.5-55.9h27.1l15.7,104.7H857.1l-7.7-60.3-25.3,60.3H813.3l-24.2-60.3Z"/><path class="b3d023c4-c302-46e6-aed2-836c2cc37145" d="M641.2,863.1c9.9-98.1,1-191.3-32.7-277.9,9.7-11.9,17.3-25,21.6-39.9a477.4,477.4,0,0,1,100.4,18.2L884.2,863.1Z"/><path class="b9108ded-05df-4e56-819b-85bb71329f34" d="M309,863.1l6-46.7c69-6.3,102.6-90,52.9-143.7,22.8-38.4,53.1-69.4,91.8-92.3,25.1,28.5,55,41.1,90,36.1,28.2,74.4,37.9,158.7,24.4,246.6Z"/><path class="ad7025e7-17f3-4a7a-bfda-3592d3312899" d="M0,863.1,276.3,323.5c70.3,38,131.5,84,181.5,139.6-14.4,18-21.6,42.6-17.4,74.7-45.8,24-83.2,62.9-115,111.7C226.2,631.1,184.3,760.3,267,807a226.1,226.1,0,0,0-3.6,56.1Z"/><path class="e81bc9ba-9f5d-4ffd-8e92-0f6b2e597a3e" d="M706,515.1,442.1,0l-137,266.9c88.2,32.4,216.8,154.9,210.2,158.4,65.2-7.4,100.9,21.7,116.2,77.7Z"/></svg>
